Numix/16/status/indicator-keyboard-Gr-5.svg

<?xml version="1.0" encoding="UTF-8" standalone="no"?>
<svg
   xmlns:dc="http://purl.org/dc/elements/1.1/"
   xmlns:cc="http://creativecommons.org/ns#"
   xmlns:rdf="http://www.w3.org/1999/02/22-rdf-syntax-ns#"
   xmlns:svg="http://www.w3.org/2000/svg"
   xmlns="http://www.w3.org/2000/svg"
   xmlns:sodipodi="http://sodipodi.sourceforge.net/DTD/sodipodi-0.dtd"
   xmlns:inkscape="http://www.inkscape.org/namespaces/inkscape"
   viewBox="0 0 16 16"
   id="svg2"
   version="1.1"
   inkscape:version="0.91 r13725"
   sodipodi:docname="indicator-keyboard-Gr-5.svg">
  <metadata
     id="metadata14">
    <rdf:RDF>
      <cc:Work
         rdf:about="">
        <dc:format>image/svg+xml</dc:format>
        <dc:type
           rdf:resource="http://purl.org/dc/dcmitype/StillImage" />
      </cc:Work>
    </rdf:RDF>
  </metadata>
  <defs
     id="defs12" />
  <sodipodi:namedview
     pagecolor="#ffffff"
     bordercolor="#666666"
     borderopacity="1"
     objecttolerance="10"
     gridtolerance="10"
     guidetolerance="10"
     inkscape:pageopacity="0"
     inkscape:pageshadow="2"
     inkscape:window-width="459"
     inkscape:window-height="369"
     id="namedview10"
     showgrid="false"
     inkscape:zoom="14.75"
     inkscape:cx="8"
     inkscape:cy="8"
     inkscape:window-x="65"
     inkscape:window-y="24"
     inkscape:window-maximized="0"
     inkscape:current-layer="svg2" />
  <path
     style="fill:#ececec;fill-opacity:1"
     d="M 1.5996094 0 C 0.71320937 2.9605947e-16 0 0.71320937 0 1.5996094 L 0 14.400391 C 2.9605947e-16 15.286791 0.71320937 16 1.5996094 16 L 14.400391 16 C 15.286791 16 16 15.286791 16 14.400391 L 16 1.5996094 C 16 0.71320937 15.286791 0 14.400391 0 L 1.5996094 0 z M 5.1601562 4.7246094 C 5.6221563 4.7246094 6.0027344 4.7749531 6.3027344 4.8769531 C 6.6027344 4.9729531 6.8209844 5.06625 6.9589844 5.15625 L 6.7519531 5.6777344 C 6.5839531 5.5577344 6.3563594 5.462625 6.0683594 5.390625 C 5.7803594 5.312625 5.4688125 5.2734375 5.1328125 5.2734375 C 4.8208125 5.2734375 4.526 5.3293594 4.25 5.4433594 C 3.974 5.5573594 3.73525 5.7290313 3.53125 5.9570312 C 3.32725 6.1850312 3.1649219 6.4667344 3.0449219 6.8027344 C 2.9309219 7.1387344 2.8730469 7.5286563 2.8730469 7.9726562 C 2.8730469 8.3866563 2.9215781 8.7616563 3.0175781 9.0976562 C 3.1135781 9.4276563 3.2572188 9.713125 3.4492188 9.953125 C 3.6472187 10.187125 3.8897344 10.366188 4.1777344 10.492188 C 4.4657344 10.618187 4.7997344 10.681641 5.1777344 10.681641 C 5.4837344 10.681641 5.7393594 10.666719 5.9433594 10.636719 C 6.1533594 10.600719 6.2932344 10.567109 6.3652344 10.537109 L 6.3652344 8.1445312 L 6.9785156 8.1445312 L 6.9785156 10.925781 C 6.8645156 10.973781 6.6387344 11.033469 6.3027344 11.105469 C 5.9727344 11.183469 5.564125 11.222656 5.078125 11.222656 C 4.670125 11.222656 4.2933125 11.149859 3.9453125 11.005859 C 3.5973125 10.861859 3.2931562 10.654766 3.0351562 10.384766 C 2.7831562 10.108765 2.5854063 9.7691875 2.4414062 9.3671875 C 2.2974062 8.9591875 2.2265625 8.4946563 2.2265625 7.9726562 C 2.2265625 7.4506563 2.3029844 6.9898906 2.4589844 6.5878906 C 2.6149844 6.1798906 2.8258437 5.8403125 3.0898438 5.5703125 C 3.3598437 5.2943125 3.6713906 5.0834531 4.0253906 4.9394531 C 4.3793906 4.7954531 4.7581563 4.7246094 5.1601562 4.7246094 z M 9.9492188 6.3535156 C 10.141219 6.3535156 10.322234 6.3684375 10.490234 6.3984375 C 10.664234 6.4284375 10.783609 6.4582812 10.849609 6.4882812 L 10.732422 6.9921875 C 10.684422 6.9681875 10.585547 6.9439219 10.435547 6.9199219 C 10.291547 6.8899219 10.099375 6.875 9.859375 6.875 C 9.607375 6.875 9.4040469 6.8936875 9.2480469 6.9296875 C 9.0980469 6.9656875 8.9991719 6.9955312 8.9511719 7.0195312 L 8.9511719 11.095703 L 8.3652344 11.095703 L 8.3652344 6.6582031 C 8.5152344 6.5922031 8.7223281 6.5269375 8.9863281 6.4609375 C 9.2503281 6.3889375 9.5712188 6.3535156 9.9492188 6.3535156 z M 11.808594 8.8417969 L 13.634766 8.8417969 L 13.634766 9.1757812 L 12.142578 9.1757812 C 12.138645 9.2498812 12.132767 9.3458906 12.125 9.4628906 C 12.1172 9.5798906 12.109363 9.6994187 12.101562 9.8242188 C 12.093763 9.9451188 12.083966 10.062681 12.072266 10.175781 C 12.060566 10.288881 12.050769 10.379012 12.042969 10.445312 C 12.343269 10.453112 12.601912 10.490341 12.820312 10.556641 C 13.038712 10.622941 13.218975 10.711119 13.359375 10.824219 C 13.499775 10.937319 13.603622 11.074475 13.669922 11.234375 C 13.740122 11.394275 13.773438 11.572578 13.773438 11.767578 C 13.773438 11.939178 13.746 12.097894 13.6875 12.246094 C 13.6329 12.394294 13.546688 12.523613 13.429688 12.632812 C 13.312687 12.742012 13.163775 12.828225 12.984375 12.890625 C 12.804975 12.953025 12.593356 12.984375 12.347656 12.984375 C 12.222856 12.984375 12.105294 12.974578 11.996094 12.955078 C 11.890794 12.939478 11.794784 12.919884 11.708984 12.896484 C 11.627084 12.873084 11.556547 12.849572 11.498047 12.826172 C 11.439547 12.802772 11.396441 12.783178 11.369141 12.767578 L 11.46875 12.427734 C 11.49215 12.443334 11.531337 12.462928 11.585938 12.486328 C 11.644438 12.509728 11.711056 12.533241 11.785156 12.556641 C 11.863156 12.576141 11.949369 12.593775 12.042969 12.609375 C 12.140469 12.624975 12.242356 12.632812 12.347656 12.632812 C 12.542656 12.632812 12.703331 12.611259 12.832031 12.568359 C 12.964631 12.521559 13.070438 12.458859 13.148438 12.380859 C 13.226437 12.302859 13.2813 12.212728 13.3125 12.111328 C 13.3476 12.006028 13.365234 11.894337 13.365234 11.773438 C 13.365234 11.617438 13.339762 11.476362 13.289062 11.351562 C 13.238362 11.226762 13.148231 11.120956 13.019531 11.035156 C 12.890831 10.949356 12.7184 10.884697 12.5 10.841797 C 12.2816 10.794997 12.003369 10.771484 11.667969 10.771484 C 11.691369 10.572584 11.710962 10.392316 11.726562 10.228516 C 11.742162 10.060816 11.755878 9.9001469 11.767578 9.7480469 C 11.779278 9.5920469 11.787116 9.4431281 11.791016 9.2988281 C 11.798816 9.1506281 11.804694 8.9977969 11.808594 8.8417969 z "
     id="path4" />
</svg>

<svg xmlns="http://www.w3.org/2000/svg" viewBox="0 0 16 16">
 <path d="m 1.6 0 c -0.886 0 -1.6 0.713 -1.6 1.6 l 0 12.801 c 0 0.886 0.713 1.6 1.6 1.6 l 12.801 0 c 0.886 0 1.6 -0.713 1.6 -1.6 l 0 -12.801 c 0 -0.886 -0.713 -1.6 -1.6 -1.6 l -12.801 0 z m 3.561 4.725 c 0.462 0 0.843 0.05 1.143 0.152 c 0.3 0.096 0.518 0.189 0.656 0.279 l -0.207 0.521 c -0.168 -0.12 -0.396 -0.215 -0.684 -0.287 c -0.288 -0.078 -0.6 -0.117 -0.936 -0.117 c -0.312 0 -0.607 0.056 -0.883 0.17 c -0.276 0.114 -0.515 0.286 -0.719 0.514 c -0.204 0.228 -0.366 0.51 -0.486 0.846 c -0.114 0.336 -0.172 0.726 -0.172 1.17 c 0 0.414 0.049 0.789 0.145 1.125 c 0.096 0.33 0.24 0.615 0.432 0.855 c 0.198 0.234 0.441 0.413 0.729 0.539 c 0.288 0.126 0.622 0.189 1 0.189 c 0.306 0 0.562 -0.015 0.766 -0.045 c 0.21 -0.036 0.35 -0.07 0.422 -0.1 l 0 -2.393 l 0.613 0 l 0 2.781 c -0.114 0.048 -0.34 0.108 -0.676 0.18 c -0.33 0.078 -0.739 0.117 -1.225 0.117 c -0.408 0 -0.785 -0.073 -1.133 -0.217 c -0.348 -0.144 -0.652 -0.351 -0.91 -0.621 c -0.252 -0.276 -0.45 -0.616 -0.594 -1.018 c -0.144 -0.408 -0.215 -0.873 -0.215 -1.395 c 0 -0.522 0.076 -0.983 0.232 -1.385 c 0.156 -0.408 0.367 -0.748 0.631 -1.018 c 0.27 -0.276 0.582 -0.487 0.936 -0.631 c 0.354 -0.144 0.733 -0.215 1.135 -0.215 z m 4.789 1.629 c 0.192 0 0.373 0.015 0.541 0.045 c 0.174 0.03 0.293 0.06 0.359 0.09 l -0.117 0.504 c -0.048 -0.024 -0.147 -0.048 -0.297 -0.072 c -0.144 -0.03 -0.336 -0.045 -0.576 -0.045 c -0.252 0 -0.455 0.019 -0.611 0.055 c -0.15 0.036 -0.249 0.066 -0.297 0.09 l 0 4.076 l -0.586 0 l 0 -4.437 c 0.15 -0.066 0.357 -0.131 0.621 -0.197 c 0.264 -0.072 0.585 -0.107 0.963 -0.107 z m 1.859 2.488 l 1.826 0 l 0 0.334 l -1.492 0 c -0.004 0.074 -0.01 0.17 -0.018 0.287 c -0.008 0.117 -0.016 0.237 -0.023 0.361 c -0.008 0.121 -0.018 0.238 -0.029 0.352 c -0.012 0.113 -0.021 0.203 -0.029 0.27 c 0.3 0.008 0.559 0.045 0.777 0.111 c 0.218 0.066 0.399 0.154 0.539 0.268 c 0.14 0.113 0.244 0.25 0.311 0.41 c 0.07 0.16 0.104 0.338 0.104 0.533 c 0 0.172 -0.027 0.33 -0.086 0.479 c -0.055 0.148 -0.141 0.278 -0.258 0.387 c -0.117 0.109 -0.266 0.195 -0.445 0.258 c -0.179 0.062 -0.391 0.094 -0.637 0.094 c -0.125 0 -0.242 -0.01 -0.352 -0.029 c -0.105 -0.016 -0.201 -0.035 -0.287 -0.059 c -0.082 -0.023 -0.152 -0.047 -0.211 -0.07 c -0.059 -0.023 -0.102 -0.043 -0.129 -0.059 l 0.1 -0.34 c 0.023 0.016 0.063 0.035 0.117 0.059 c 0.058 0.023 0.125 0.047 0.199 0.07 c 0.078 0.019 0.164 0.037 0.258 0.053 c 0.098 0.016 0.199 0.023 0.305 0.023 c 0.195 0 0.356 -0.022 0.484 -0.064 c 0.133 -0.047 0.238 -0.109 0.316 -0.188 c 0.078 -0.078 0.133 -0.168 0.164 -0.27 c 0.035 -0.105 0.053 -0.217 0.053 -0.338 c 0 -0.156 -0.025 -0.297 -0.076 -0.422 c -0.051 -0.125 -0.141 -0.231 -0.27 -0.316 c -0.129 -0.086 -0.301 -0.15 -0.52 -0.193 c -0.218 -0.047 -0.497 -0.07 -0.832 -0.07 c 0.023 -0.199 0.043 -0.379 0.059 -0.543 c 0.016 -0.168 0.029 -0.328 0.041 -0.48 c 0.012 -0.156 0.02 -0.305 0.023 -0.449 c 0.008 -0.148 0.014 -0.301 0.018 -0.457 z" style="fill:#ececec;fill-opacity:1"/>
</svg>
